Delta/places/scalable/folder-pictures.svg

<svg xmlns="http://www.w3.org/2000/svg" width="192" height="192" viewBox="0 0 192 192">
  <g fill="none" fill-rule="evenodd">
    <rect width="152" height="152" x="20" y="20" fill="#99CDCD" rx="10"/>
    <path fill="#000" fill-opacity=".25" d="M87.9296875 109.839844L78.4869792 122.089844 116.513021 122.089844 104.263021 105.75651 94.8203125 118.00651 87.9296875 109.839844zM122 124.769531C122 126.215719 121.447051 127.491748 120.341146 128.597656 119.23524 129.703565 117.959207 130.25651 116.513021 130.25651L78.4869792 130.25651C77.0407915 130.25651 75.7647621 129.703565 74.6588542 128.597656 73.5529459 127.491748 73 126.215719 73 124.769531L73 86.7434896C73 85.2973036 73.5529459 84.0212701 74.6588542 82.9153646 75.7647621 81.8094591 77.0407915 81.2565104 78.4869792 81.2565104L116.513021 81.2565104C117.959207 81.2565104 119.23524 81.8094591 120.341146 82.9153646 121.447051 84.0212701 122 85.2973036 122 86.7434896L122 124.769531zM172 55.0690859L172 30.0025173C172 24.4770034 167.52172 20 161.997483 20L30.0025173 20C24.4770034 20 20 24.4782795 20 30.0025173L20 41.8667526C20.5977376 36.877596 24.8600859 33 29.9984742 33L63.5667725 33C72.0254898 33 75.1405393 46.256422 78.9328151 46.256422L161.997289 46.256422C167.120475 46.256422 171.374434 50.1039341 172 55.0690882L172 55.0690859z"/>
  </g>
</svg>

<svg width="192" height="192" version="1.1" viewBox="0 0 192 192" xmlns="http://www.w3.org/2000/svg">
 <rect x="20" y="20" width="152" height="152" rx="10" style="fill-rule:evenodd;fill:#99cdcd"/>
 <path d="m87.93 109.84-9.4427 12.25h38.026l-12.25-16.333-9.4427 12.25zm34.07 14.93c0 1.4462-0.55295 2.7222-1.6588 3.8281-1.1059 1.1059-2.3819 1.6588-3.8281 1.6588h-38.026c-1.4462 0-2.7222-0.55295-3.8281-1.6588-1.1059-1.1059-1.6589-2.3819-1.6589-3.8281v-38.026c0-1.4462 0.55295-2.7222 1.6589-3.8281 1.1059-1.1059 2.3819-1.6589 3.8281-1.6589h38.026c1.4462 0 2.7222 0.55295 3.8281 1.6589 1.1059 1.1059 1.6588 2.3819 1.6588 3.8281zm50-69.7v-25.067c0-5.5255-4.4783-10.003-10.003-10.003h-131.99c-5.5255 0-10.003 4.4783-10.003 10.003v11.864c0.59774-4.9892 4.8601-8.8668 9.9985-8.8668h33.568c8.4587 0 11.574 13.256 15.366 13.256h83.064c5.1232 0 9.3771 3.8475 10.003 8.8127z" style="fill-rule:evenodd;opacity:.25"/>
</svg>
